paymentMethods/skrill.svg

<svg width="128" height="64" viewBox="0 0 128 64" fill="none" xmlns="http://www.w3.org/2000/svg">
<rect width="128" height="64" rx="6" fill="white"/>
<path fill-rule="evenodd" clip-rule="evenodd" d="M81.4677 24.8972C82.1161 24.8972 82.7499 24.7049 83.289 24.3447C83.8282 23.9845 84.2483 23.4725 84.4965 22.8734C84.7446 22.2744 84.8095 21.6152 84.683 20.9793C84.5565 20.3434 84.2443 19.7592 83.7858 19.3007C83.3273 18.8422 82.7432 18.53 82.1073 18.4035C81.4713 18.277 80.8122 18.3419 80.2131 18.5901C79.6141 18.8382 79.1021 19.2584 78.7418 19.7975C78.3816 20.3366 78.1893 20.9705 78.1893 21.6189V21.6189C78.1893 22.0494 78.2741 22.4757 78.4389 22.8734C78.6036 23.2712 78.8451 23.6326 79.1496 23.937C79.454 24.2414 79.8154 24.4829 80.2131 24.6477C80.6109 24.8124 81.0372 24.8972 81.4677 24.8972V24.8972ZM56.3337 26.6667C55.4254 29.0266 54.1409 31.2238 52.53 33.1729V19.8242L45.6539 21.1817V45.3784H52.53V37.9013C54.518 40.8854 55.5015 45.3784 55.5015 45.3784H63.731C62.9156 41.9908 59.3809 35.7746 59.3809 35.7746C61.4982 33.0452 63.1291 29.9712 64.2017 26.6877L56.3337 26.6667ZM74.4066 26.4145C68.2366 26.612 65.1054 29.3566 65.1054 34.8625V45.37H71.8302V36.8043C71.8302 33.526 72.2505 32.1096 76.1635 31.9751V26.528C75.5794 26.4405 74.9883 26.4096 74.3982 26.4355L74.4066 26.4145ZM34.1292 29.3314C33.2886 29.2767 31.3427 29.1506 31.3427 27.3938C31.3427 25.2923 34.1461 25.2923 35.1968 25.2923C37.2212 25.383 39.225 25.7391 41.1567 26.3514C41.1567 26.3514 42.1107 26.6877 42.9219 27.0323H42.9892V21.2406L42.8883 21.2112C40.8667 20.5051 38.5172 19.8242 34.1671 19.8242C26.6563 19.8242 24 24.1953 24 27.9444C24.0084 30.1047 24.9163 35.1862 33.5282 35.7746C34.2595 35.8166 36.1929 35.9301 36.1929 37.7416C36.1929 39.2379 34.6084 40.1205 31.9437 40.1205C29.3928 40.0943 26.8683 39.6 24.496 38.662V44.6429C27.3996 45.3578 30.3827 45.6982 33.3727 45.6558C40.7069 45.6558 43.9853 41.5159 43.9853 37.418C43.9685 32.7652 40.2866 29.7433 34.1292 29.3314ZM78.1389 45.3616H84.8007V26.6877H78.1389V45.3616ZM97.3424 20.9842V45.3616H104V19.8242L97.3424 21.0178V20.9842ZM87.6209 20.9842L94.2658 19.8032V45.3784H87.6209V21.001V20.9842Z" fill="url(#paint0_linear_10_13648)"/>
<defs>
<linearGradient id="paint0_linear_10_13648" x1="42.4287" y1="18.1185" x2="48.4709" y2="51.8884" gradientUnits="userSpaceOnUse">
<stop stop-color="#6B195F"/>
<stop offset="1" stop-color="#4C255B"/>
</linearGradient>
</defs>
</svg>

<svg xmlns="http://www.w3.org/2000/svg" width="128" height="64" fill="none"><rect width="128" height="64" fill="#fff" rx="6"/><path fill="url(#a)" fill-rule="evenodd" d="M81.468 24.897a3.278 3.278 0 1 0-3.279-3.278 3.277 3.277 0 0 0 3.279 3.278Zm-25.134 1.77a23.415 23.415 0 0 1-3.804 6.506V19.824l-6.876 1.358v24.196h6.876v-7.477c1.988 2.984 2.971 7.477 2.971 7.477h8.23c-.815-3.387-4.35-9.603-4.35-9.603a30.048 30.048 0 0 0 4.82-9.087l-7.867-.021Zm18.073-.253c-6.17.198-9.302 2.943-9.302 8.448V45.37h6.725v-8.566c0-3.278.42-4.694 4.334-4.829v-5.447a9.194 9.194 0 0 0-1.766-.092l.009-.021Zm-40.278 2.917c-.84-.054-2.786-.18-2.786-1.937 0-2.102 2.803-2.102 3.854-2.102 2.024.091 4.028.447 5.96 1.06 0 0 .954.336 1.765.68h.067v-5.791l-.1-.03c-2.022-.706-4.372-1.387-8.722-1.387-7.51 0-10.167 4.371-10.167 8.12.008 2.16.916 7.242 9.528 7.83.732.043 2.665.156 2.665 1.968 0 1.496-1.585 2.379-4.25 2.379a20.837 20.837 0 0 1-7.447-1.459v5.98a35.05 35.05 0 0 0 8.877 1.014c7.334 0 10.612-4.14 10.612-8.238-.017-4.653-3.698-7.675-9.856-8.087Zm44.01 16.03H84.8V26.689h-6.662v18.674Zm19.203-24.377v24.378H104V19.824l-6.658 1.194v-.034Zm-9.721 0 6.645-1.18v25.574H87.62V20.984Z" clip-rule="evenodd"/><defs><linearGradient id="a" x1="42.429" x2="48.471" y1="18.119" y2="51.888" gradientUnits="userSpaceOnUse"><stop stop-color="#6B195F"/><stop offset="1" stop-color="#4C255B"/></linearGradient></defs></svg>
